X:1
T:6 Lieder, Op.10
T:Der Müllerinn Nachbar
T:6. Der Müllerinn Nachbar
T:Johanna Kinkel
T:6 Lieder, Op.10 
T:Adelbert von Chamisso
T:Creative Commons copyright waiver (CC0 1.0 Universal)
T:Creative Commons copyright waiver (CC0 1.0 Universal)
C:Johanna Kinkel (originally published under the name J. Mathieux)
Z:Adelbert von Chamisso
Z:Creative Commons copyright waiver (CC0 1.0 Universal)
%%score ( 1 2 3 ) { 4 | 5 }
L:1/8
Q:1/4=155
M:6/8
K:Bb
V:1 treble nm="Singstimme\nVoice"
V:2 treble 
V:3 treble 
V:4 treble nm="Pianoforte"
V:5 bass 
V:1
"^Allegro vivace"!p! D | G G A B B c | d3 B z B | ed c c B A | G3 z2!f! F | B2 c d d e | f3 d z d | %7
w: 1. Die|Müh- le die dreht ih- re|Flü- gel, der|Wind, _ der sau- set da-|rin. Ich|wollt’, ich wä- re der|Mül- ler, von|
w: 2. Am|Sonn- * tag in * der|Kir- che, da|glaubt ich, sie schie- le nach|mir. Sie|* an mir nur vor-|ü- ber, der|
w: 3. Der|Knecht, * der Knecht, * ich|woll- te, mir|kocht in den A- dern das|Blut \_ Ich||rä- chen, ich|
 g g f ed c |"^spelling as leider.net\nie Thur -> Tür\n  Muth -> Mut\n" B2 z z2 z | z6 | %10
w: we- gen der Mül- * le-|rinn.||
w: Knecht, * der stand an der|Tür.||
w: wollt’, * ich hät- te den|Mut.||
 z2 z z2"^NB. Die kleinen Noten sind für die 2\nte\n Strophe.\n       \nThe small notes are for the 2\nnd\n verse.\n"!p! d | %11
w: Der|
w: Und|
w: Ich|
 d2 D D2 D | D2- D/E/ D2 d |[Q:1/4=150] c B A B A G |"^rall."[Q:1/4=145]!<(! d6-!<)![Q:1/4=140] | %15
w: Mül- ler ist ge-|stor- * * ben, Gott|schenk’ ihm die e- wi- ge|Ruh!|
w: als es ging zum|Tan- * * ze, da|kam sie mie e- * ben|recht,|
w: woll- te _ nun|was _ weiss ich, ich|weiss _ nicht, wo _ ich|bin.|
[Q:1/4=135]!>(! d6-!>)![Q:1/4=130] |[Q:1/4=120] d3[Q:1/4=145] z2!f!"^a tempo vivace" D[Q:1/4=155] | %17
w: _|* Ich|
w: _|* Sie|
w: _|* Die|
 G G =B d d ^f | g3 =B2 B | =e e d c=B A |[Q:1/4=150] G3 z2"_(Ad. v. Chamisso.)" z | z6 | %22
w: woll- te es hol- te der|Hen- ker den|Fle- gel von Knecht _ da-|zu.||
w: grü- sste mich freund- lich und|frag- te, und|frag- te mich gar nach dem|Knecht.||
w: Müh- le die dreht ih- re|Flü- gel, der|Wind, _ der sau- set da-|rin.||
 z2[Q:1/4=140] z z2 :| %23
w: |
w: |
w: |
V:2
 x | G2 A B2 c | x6 | e d x4 | x6 | B B c d2 e | x6 | g2 f e d c | x6 | x6 | x6 | x6 | %12
w: ||||||||||||
w: |||||schie- lte * * *|||||||
w: |||||woll- te an ihm mich|||||||
 x2 D/ E/ x3 | cB A BA G | x6 | x6 | x6 | x6 | x6 | =e2 d c =B A | x6 | x6 | x5 :| %23
w: |||||||||||
w: |||||||||||
w: |||||||||||
V:3
 x | x6 | x6 | x6 | x6 | x6 | x6 | x6 | x6 | x6 | x6 | x2 d d2 d | (d2 d/)e/ d2 x | x6 | x6 | x6 | %16
 x6 | x6 | x6 | x6 | x6 | x6 | x5 :| %23
V:4
 z |!p! g/a/g/d/g/a/ b/c'/b/g/b/c'/ | d'/e'/d'/c'/b/a/ g/^f/g/a/b/!<(!g/ | %3
 a/b/c'/d'/e'/!<)!!p!e/!<(! d/=e/^f/g/a/b/!<)! |!mf! g/!p!!<(!d/e/d/[^fb]/a/ g/a/g/=f/g/a/!<)! | %5
!f! b/c'/b/f/b/c'/ d'/e'/d'/b/d'/e'/ | f'/g'/f'/e'/d'/c'/ b/a/b/c'/d'/b/ | %7
 c'/d'/e'/f'/g'/g/ f/g/a/b/c'/d'/ | b/d'/f'/e'/d'/c'/ b/a/b/c'/d'/!mf!!<(!b/ | %9
 c'/d'/e'/f'/g'/!<)!!mf!g/!<(! f/g/a/b/c'/d'/!<)! | b/!mf!f/g/f/[ad']/c'/!>(! b/f/d/f/b/d'/!>)! | %11
!p! (c'/b/a/g/).^f (c'/b/a/g/).f | (d'/c'/b/a/).g (d'/c'/b/a/).g | (e'/d'/c'/b/).a (d'/c'/b/a/).g | %14
 [^fa]/d'/e'/d'/e'/d'/!<(! e'/d'/e'/d'/e'/d'/!<)! |!>(! e'/d'/e'/d'/e'/d'/ e'/d'/e'/d'/e'/d'/!>)! | %16
 e'/f'/e'/d'/c'/b/ a/g/^f/(d/!f!=e/f/) | g/a/g/d/g/=b/ d'/=e'/d'/a/d'/^f'/ | %18
 g'/=e'/d'/c'/=b/a/ g/^f/g/a/b/g/ | a/=b/c'/d'/=e'/=e/ d/e/^f/g/a/=b/ | %20
!>(! g/=b/d'/c'/b/a/ g/^f/g/a/b/!>)!g/ |!mf!!>(! a/=b/c'/d'/e'/!>)!e/!>(! d/=e/^f/g/a/_b/!>)! | %22
!mp! g/!>(!d/_e/d/[^fb]/a/!>)! !fermata!g z :| %23
V:5
 z | [G,,G,][K:treble] [DGB][DGB] G,[DGB][DGB] | B,[DGB][DGB] E[GB][GB] | %3
 C[EGA][EGA] D[D^FA][DFA] | [GB] z [Dc] [GB] z[K:bass] [F,E] | [B,D][DF][DF] B,[DF][DF] | %6
 D,[F,B,][F,B,] G,[B,D][B,D] | E,[G,C][G,C] F,[CE][CE] | B,[DF][DF] G,[B,D][B,D] | %9
 E,[G,C][G,C] F,[CE][CE] | [B,D] z [F,E] [B,D] z z | D,[A,C][A,C] D,[A,C][A,C] | %12
 G,[B,D][B,D] G,[B,D][B,D] | ^F,[A,D][A,D] G,[B,D][B,D] | %14
 [D,D][K:treble] [D^F][D=EG] [D=F^G]2 [D^FA] | [DGB][D^G=B][DAc] [DGB]2 [D=G_B] | [D^FA]2 z z2 z | %17
[K:bass] [G,,G,][K:treble] [DG=B][DGB][K:bass] [^F,^F][K:treble] [D^FA][DFA] | %18
[K:bass] [=E,=E][K:treble] [=B,=EG][B,EG][K:bass] [D,D][K:treble] [B,DG][B,DG] | %19
[K:bass] [C,C][K:treble] [=EGA][EGA][K:bass] [D,D][K:treble] [D^FA][DFA] | G[=Bd][Bd] =E[GB][GB] | %21
 C[_EA][Ac] D[Ac][Ac] | [G_B] z [Dc] [GB] z :| %23

